lib/logo_tmp/nrk-logo-nrk-super-title-below-on-dark.svg

<svg width="48" height="41" viewBox="0 0 48 41" fill="none" xmlns="http://www.w3.org/2000/svg">
<path d="M0 34.994V29.0038H1.97734V34.994H0ZM4.66754 29.9572L5.80469 34.994H3.64068L2.28284 29.0038H3.49654C3.77486 29.0002 4.04491 29.0977 4.25606 29.278C4.46756 29.4508 4.61286 29.6905 4.66754 29.9572ZM6.10173 34.994V29.0038H8.07907V34.994H6.10173ZM9.57255 31.2818C9.35948 31.2839 9.14982 31.2284 8.9659 31.1215C8.78444 31.0172 8.63371 30.8674 8.52884 30.687C8.42111 30.5041 8.36536 30.2956 8.36747 30.0837C8.36503 29.8731 8.42084 29.6659 8.52884 29.4847C8.63483 29.3063 8.78538 29.1581 8.9659 29.0544C9.14987 28.9476 9.35949 28.8922 9.57255 28.8941C9.78435 28.8918 9.99273 28.9473 10.1751 29.0544C10.3538 29.159 10.5028 29.3071 10.6079 29.4847C10.7158 29.666 10.7716 29.8732 10.7693 30.0837C10.7712 30.2956 10.7155 30.5041 10.6079 30.687C10.5039 30.8666 10.3547 31.0163 10.1751 31.1215C9.99272 31.2288 9.78419 31.2843 9.57227 31.2818H9.57255ZM11.0748 34.994V29.0038H13.0523V34.994H11.0748ZM15.5556 32.2773C15.5612 32.2831 15.6036 32.352 15.6829 32.484C15.7622 32.616 15.8655 32.7848 15.9927 32.9903C16.12 33.1957 16.2543 33.4136 16.3956 33.6441C16.537 33.8746 16.67 34.0926 16.7946 34.298C16.9188 34.5034 17.0603 34.7354 17.219 34.994H15.0464C14.9106 34.7747 14.7874 34.5764 14.6771 34.3992C14.5668 34.2221 14.4495 34.0308 14.3252 33.8255C14.2007 33.6204 14.0775 33.4207 13.9558 33.2265C13.8341 33.0323 13.7294 32.8621 13.6419 32.7161C13.5541 32.5699 13.4932 32.4715 13.4593 32.4208C13.3754 32.2949 13.3257 32.1496 13.3152 31.9989C13.3236 31.8543 13.3704 31.7146 13.4508 31.5938C13.4848 31.5376 13.547 31.4377 13.6375 31.2943C13.7281 31.1509 13.8342 30.9807 13.9558 30.7839C14.0774 30.587 14.2006 30.3859 14.3252 30.1806C14.4499 29.9753 14.5672 29.7827 14.6771 29.6027C14.7876 29.4229 14.9107 29.2232 15.0464 29.0037H17.219L15.5385 31.7288C15.4865 31.8097 15.4572 31.903 15.4536 31.9989C15.4592 32.0997 15.4946 32.1965 15.5553 32.2773H15.5556Z" fill="#00B3C7"/>
<path d="M23.8001 32.7093C23.875 32.907 23.9107 33.1173 23.9054 33.3286C23.9139 33.6139 23.8453 33.8962 23.7069 34.1459C23.5736 34.3722 23.387 34.5625 23.1633 34.7004C22.913 34.8523 22.6378 34.959 22.3504 35.0155C22.0197 35.0836 21.6826 35.1169 21.3449 35.1148C21.1891 35.1148 21.0352 35.1109 20.8832 35.1032C20.728 35.0949 20.5736 35.0754 20.4212 35.0446C20.2649 35.0132 20.1012 34.9742 19.9301 34.9275C19.759 34.8809 19.5681 34.8224 19.3574 34.7519L19.3104 33.6894C19.4899 33.7519 19.6712 33.8104 19.8544 33.8651C20.0375 33.9197 20.2149 33.9645 20.3864 33.9993C20.5577 34.0343 20.7232 34.0618 20.8833 34.0808C21.0287 34.0995 21.1751 34.1093 21.3216 34.1101C21.5357 34.1113 21.7492 34.0898 21.9588 34.0461C22.1349 34.0139 22.2999 33.9375 22.4383 33.8241C22.4992 33.7692 22.547 33.7014 22.5783 33.6257C22.6096 33.5499 22.6236 33.4682 22.6193 33.3864C22.6198 33.303 22.5996 33.2207 22.5607 33.1469C22.5196 33.0707 22.4639 33.0033 22.3968 32.9487C22.3213 32.8867 22.2389 32.8337 22.1511 32.7907C22.0579 32.7441 21.9605 32.7013 21.8589 32.6623C21.7808 32.639 21.7012 32.6135 21.6192 32.5866C21.5372 32.5596 21.4517 32.5322 21.3619 32.5047C21.2722 32.4772 21.1829 32.4523 21.0931 32.4286C21.0033 32.4049 20.914 32.3782 20.8242 32.3471C20.7344 32.3161 20.647 32.2808 20.5612 32.2419C20.4063 32.1803 20.2576 32.104 20.1171 32.0142C19.9806 31.9286 19.8583 31.8223 19.7546 31.6991C19.6488 31.5709 19.5676 31.4244 19.5148 31.2669C19.4532 31.0806 19.4234 30.8852 19.4269 30.6891C19.4206 30.4141 19.4809 30.1417 19.6027 29.8951C19.7202 29.6688 19.8931 29.4758 20.1055 29.3344C20.3446 29.1776 20.6099 29.065 20.8888 29.0018C21.2143 28.9253 21.5479 28.8881 21.8823 28.8909C22.0303 28.8909 22.1804 28.8967 22.3326 28.9084C22.4836 28.9198 22.6339 28.9394 22.7828 28.9669C22.933 28.9946 23.0813 29.0315 23.227 29.0774C23.3788 29.1259 23.5272 29.1845 23.6711 29.2531L23.5779 30.2806C23.4666 30.2252 23.3513 30.1784 23.2328 30.1405C23.112 30.1015 22.9892 30.0664 22.8645 30.0353C22.7398 30.0043 22.6171 29.9786 22.4962 29.9592C22.3754 29.9398 22.2623 29.9262 22.157 29.9184C22.0517 29.9106 21.9565 29.9068 21.8707 29.9068C21.7019 29.9051 21.5335 29.9207 21.3679 29.9534C21.2353 29.9792 21.1072 30.0244 20.9879 30.0876C20.8921 30.1375 20.8114 30.2121 20.7544 30.3037C20.7028 30.3923 20.6765 30.4932 20.6783 30.5956C20.6759 30.6962 20.7023 30.7954 20.7544 30.8816C20.8047 30.9632 20.8701 31.0346 20.9471 31.0919C21.0309 31.1538 21.121 31.2066 21.216 31.2495C21.3147 31.2984 21.4163 31.3413 21.5202 31.3779C21.629 31.417 21.7439 31.452 21.8649 31.4831C21.9859 31.5142 22.1068 31.5512 22.2274 31.5941C22.3483 31.6367 22.4672 31.6776 22.5841 31.7167C22.7592 31.7773 22.9292 31.8514 23.0927 31.9383C23.2495 32.022 23.3916 32.1305 23.5135 32.2596C23.636 32.3906 23.7331 32.5431 23.8001 32.7093ZM28.865 29.0894L30.1977 28.8911L30.1861 34.9978H29.1456L28.96 34.2392C28.9307 34.2667 28.9014 34.2943 28.8714 34.3206C28.6876 34.4868 28.4856 34.6317 28.2692 34.7525C28.0607 34.8686 27.8389 34.9589 27.6087 35.0214C27.3664 35.0851 27.1167 35.1164 26.8662 35.1145C26.4787 35.1258 26.0947 35.0395 25.7495 34.8634C25.4397 34.6945 25.1951 34.4275 25.054 34.1044C24.8977 33.7662 24.8197 33.3322 24.8201 32.8025V29.0895L26.1528 28.8913V32.5576C26.1452 32.8185 26.1888 33.0784 26.2814 33.3225C26.3567 33.5174 26.4971 33.6804 26.6788 33.7839C26.8956 33.8937 27.1371 33.946 27.3801 33.9356C27.5272 33.9357 27.6741 33.922 27.8187 33.8948C27.9614 33.8679 28.1021 33.8308 28.2395 33.7839C28.3799 33.7355 28.5167 33.677 28.6486 33.6088C28.7194 33.5723 28.7913 33.5328 28.865 33.4905V29.0894ZM36.1747 29.2477C35.7566 28.9926 35.273 28.8647 34.7833 28.8799C34.4872 28.8811 34.1924 28.9204 33.9064 28.997C33.6004 29.0788 33.3058 29.1985 33.0294 29.3532C32.9785 29.3815 32.928 29.4133 32.8775 29.4448V28.8919L31.5448 29.1022V37.4395H32.8775V34.8156C33.0901 34.9052 33.3115 34.9725 33.538 35.0162C33.8175 35.0691 34.1015 35.0945 34.3859 35.092C34.914 35.1003 35.4348 34.9674 35.8942 34.707C36.3463 34.4412 36.7132 34.0524 36.9522 33.5859C37.2133 33.0954 37.3438 32.4999 37.3438 31.7993C37.3543 31.276 37.2528 30.7564 37.0458 30.2754C36.863 29.8548 36.56 29.4972 36.1747 29.2477ZM35.7535 33.1243C35.618 33.426 35.3884 33.6759 35.0989 33.8366C34.7744 34.0046 34.4122 34.0869 34.0468 34.0756C33.8785 34.0761 33.7105 34.0644 33.544 34.0407C33.3693 34.0148 33.1971 33.9738 33.0295 33.9181C32.9807 33.9021 32.9297 33.8851 32.8776 33.8668V30.246L32.8892 30.2405C33.0528 30.1664 33.2068 30.1041 33.3513 30.0535C33.4864 30.0055 33.6251 29.9684 33.7662 29.9425C33.8935 29.9197 34.0226 29.908 34.152 29.9076C34.5024 29.8952 34.8504 29.9715 35.1633 30.1296C35.4357 30.2814 35.6496 30.5197 35.771 30.8067C35.9194 31.1736 35.9893 31.5674 35.9762 31.9628C35.988 32.3616 35.912 32.758 35.7535 33.1243ZM42.4255 32.2609C42.6565 32.1928 42.8727 32.082 43.0627 31.9341C43.2252 31.8041 43.3553 31.6382 43.4427 31.4495C43.5291 31.2587 43.573 31.0515 43.5713 30.8422C43.5702 30.5962 43.5162 30.3533 43.4131 30.1299C43.3038 29.8907 43.1444 29.6778 42.9457 29.5054C42.7182 29.3108 42.4538 29.1638 42.1683 29.0732C41.8166 28.9623 41.4494 28.9091 41.0807 28.9156C40.4416 28.9156 39.8999 29.0498 39.4558 29.3184C39.0131 29.585 38.6623 29.9801 38.4502 30.4511C38.2142 30.9858 38.0984 31.5657 38.111 32.1499C38.111 32.7964 38.2299 33.3414 38.4677 33.7848C38.7061 34.2292 39.0812 34.5854 39.5376 34.8009C40.013 35.0345 40.5977 35.1513 41.2914 35.1513C41.5497 35.1529 41.8076 35.1353 42.0632 35.0985C42.2901 35.0654 42.5132 35.0107 42.7296 34.9352C42.9402 34.8615 43.1545 34.7739 43.3727 34.6725L43.4546 33.7035C43.1513 33.8222 42.8408 33.9216 42.5248 34.0011C42.1709 34.0865 41.8077 34.1277 41.4435 34.1237C41.1517 34.128 40.8606 34.0927 40.5782 34.0186C40.3391 33.9619 40.1202 33.8402 39.9459 33.6671C39.7716 33.494 39.6486 33.2761 39.5905 33.0376C39.5425 32.8704 39.51 32.6992 39.4934 32.5261L41.5255 32.4187C41.8307 32.402 42.1328 32.3489 42.4255 32.2609ZM39.3739 31.6586C39.3891 31.374 39.4457 31.0931 39.5418 30.8247C39.6384 30.5413 39.8226 30.296 40.0679 30.1239C40.3216 29.9656 40.6167 29.8864 40.9157 29.8965C41.158 29.8865 41.399 29.9368 41.6171 30.0428C41.7813 30.1262 41.919 30.2536 42.0149 30.4107C42.0964 30.5445 42.1408 30.6976 42.1434 30.8543C42.1463 30.975 42.1159 31.0942 42.0555 31.1989C41.9852 31.3056 41.883 31.3874 41.7633 31.4325C41.5892 31.4988 41.4055 31.5362 41.2193 31.5434L39.3739 31.6586ZM47.9055 28.9198L47.7419 30.1227C47.5919 30.1147 47.4415 30.1167 47.2917 30.1286C47.1557 30.1389 47.0208 30.1603 46.8884 30.1926C46.7633 30.2242 46.6403 30.2633 46.52 30.3097C46.3966 30.358 46.2774 30.4165 46.1637 30.4847C46.0779 30.5364 45.992 30.5921 45.9065 30.6477V34.9923H44.5733V29.0834L45.9064 28.8851V29.8234C45.9278 29.7985 45.9488 29.7733 45.9705 29.7492C46.1324 29.5673 46.3148 29.4047 46.5141 29.2646C46.7076 29.1291 46.9232 29.0282 47.1513 28.9666C47.3974 28.9034 47.6534 28.8874 47.9055 28.9198Z" fill="#00B3C7"/>
<path fill-rule="evenodd" clip-rule="evenodd" d="M23.9126 5C18.2891 5 13.7 9.58353 13.7 15.1998C13.7 20.8056 18.2889 25.4 23.9126 25.4C29.5251 25.4 34.1253 20.8056 34.1253 15.1998C34.1252 9.58353 29.525 5 23.9126 5ZM15.7028 15.1998C15.7028 19.7284 19.4114 23.4763 23.9126 23.4763C28.4575 23.4763 32.1224 19.7284 32.1223 15.1998C32.1223 10.6166 28.4575 6.92359 23.9126 6.92359C19.4114 6.92359 15.7028 10.6167 15.7028 15.1998ZM22.1078 15.2329C22.1098 15.4396 22.0704 15.6446 21.9919 15.8359C21.9134 16.0272 21.7975 16.2009 21.6509 16.3468C21.5043 16.4927 21.3299 16.6079 21.1381 16.6856C20.9463 16.7632 20.7409 16.8018 20.5339 16.7991C20.118 16.7991 19.7191 16.6341 19.425 16.3404C19.1309 16.0466 18.9657 15.6483 18.9657 15.2329C18.9657 14.8175 19.1309 14.4191 19.425 14.1254C19.7191 13.8316 20.118 13.6666 20.5339 13.6666C20.7409 13.6639 20.9463 13.7025 21.1382 13.7802C21.33 13.8578 21.5043 13.973 21.651 14.1189C21.7976 14.2648 21.9136 14.4386 21.992 14.6299C22.0705 14.8212 22.1098 15.0262 22.1078 15.2329ZM29.2496 14.5075L28.2156 15.3314C28.1384 15.3864 28.1384 15.4412 28.1606 15.5293L28.5016 16.7934C28.5239 16.8597 28.4907 16.8702 28.4466 16.837L27.3348 16.1121C27.3063 16.0907 27.2715 16.0791 27.2359 16.0791C27.2002 16.0791 27.1655 16.0907 27.137 16.1121L26.0144 16.8488C25.9703 16.8815 25.9372 16.8597 25.9593 16.7938L26.3003 15.5297C26.3157 15.4964 26.3197 15.4591 26.3117 15.4233C26.3037 15.3876 26.2843 15.3554 26.2563 15.3318L25.211 14.4853C25.1778 14.4526 25.1778 14.4086 25.2328 14.4086L26.5426 14.3536C26.5727 14.3546 26.6022 14.3453 26.6263 14.3273C26.6504 14.3094 26.6676 14.2837 26.6752 14.2547L27.1811 12.9905C27.2143 12.9138 27.2583 12.9243 27.2802 12.9905L27.7205 14.2109C27.73 14.255 27.7555 14.294 27.7921 14.3204C27.8287 14.3468 27.8738 14.3587 27.9187 14.3538L29.2172 14.4088C29.2941 14.4086 29.3049 14.4635 29.2501 14.5075H29.2496Z" fill="#00B3C7"/>
</svg>

<svg xmlns="http://www.w3.org/2000/svg" viewBox="0 0 48 41"><path fill="#00B3C7" d="M0 34.994v-5.99h1.977v5.99H0Zm4.668-5.037 1.137 5.037H3.64l-1.358-5.99h1.214c.278-.004.548.094.76.274.21.173.356.413.41.68Zm1.434 5.037v-5.99h1.977v5.99H6.102Zm3.47-3.712a1.193 1.193 0 1 1 0-2.388c.212-.002.42.053.603.16.179.105.328.253.433.43.108.182.164.39.161.6a1.202 1.202 0 0 1-.594 1.038c-.182.107-.39.162-.603.16Zm1.503 3.712v-5.99h1.977v5.99h-1.977Zm4.48-2.717c.006.006.049.075.128.207l.31.506a157.214 157.214 0 0 1 .802 1.308c.124.205.265.437.424.696h-2.173c-.135-.22-.259-.418-.369-.595-.11-.177-.227-.368-.352-.574a49.447 49.447 0 0 0-.37-.599 30.668 30.668 0 0 1-.313-.51 8.656 8.656 0 0 0-.183-.295.87.87 0 0 1-.144-.422.816.816 0 0 1 .136-.405l.186-.3a61.387 61.387 0 0 0 .688-1.113 294.566 294.566 0 0 1 .721-1.177h2.173l-1.68 2.725a.537.537 0 0 0-.085.27.51.51 0 0 0 .101.278ZM23.8 32.71c.075.197.11.407.105.619.009.285-.06.567-.198.817-.133.226-.32.416-.544.554-.25.152-.525.259-.813.316-.33.068-.667.1-1.005.099-.156 0-.31-.004-.462-.012a3.193 3.193 0 0 1-.462-.058 7.417 7.417 0 0 1-.49-.117 10.608 10.608 0 0 1-.574-.176l-.047-1.063c.18.063.361.121.544.176a6.133 6.133 0 0 0 1.03.216c.145.018.291.028.438.03.214 0 .427-.021.637-.065.176-.032.34-.108.48-.222a.55.55 0 0 0 .18-.438.507.507 0 0 0-.058-.24.659.659 0 0 0-.164-.197 1.261 1.261 0 0 0-.246-.158 3.286 3.286 0 0 0-.292-.129 9.325 9.325 0 0 1-.24-.075 7.063 7.063 0 0 0-.526-.158 3.034 3.034 0 0 1-.532-.187 2.628 2.628 0 0 1-.444-.228 1.55 1.55 0 0 1-.362-.315 1.356 1.356 0 0 1-.24-.432 1.742 1.742 0 0 1-.088-.578 1.705 1.705 0 0 1 .176-.794c.117-.226.29-.42.502-.56.24-.157.505-.27.784-.333a4.19 4.19 0 0 1 .993-.111c.148 0 .298.006.45.017.152.012.302.031.45.059a3.525 3.525 0 0 1 .888.286l-.092 1.028a2.447 2.447 0 0 0-.345-.14 5.644 5.644 0 0 0-.369-.106 4.453 4.453 0 0 0-.707-.117 3.898 3.898 0 0 0-.286-.011 2.467 2.467 0 0 0-.503.046c-.133.026-.26.071-.38.135a.603.603 0 0 0-.234.216.56.56 0 0 0-.076.292c-.002.1.024.2.076.286.05.081.116.153.193.21.084.062.174.115.269.158.099.048.2.091.304.128.109.039.224.074.345.105.12.031.242.068.362.111.121.043.24.084.357.123.175.06.345.134.509.221.157.084.299.192.42.322.123.13.22.283.287.45Zm5.065-3.62 1.333-.199-.012 6.107h-1.04l-.186-.759-.089.082a3.286 3.286 0 0 1-.602.431c-.208.117-.43.207-.66.27a2.836 2.836 0 0 1-.743.093 2.31 2.31 0 0 1-1.116-.252 1.589 1.589 0 0 1-.696-.759c-.156-.338-.234-.772-.234-1.301V29.09l1.333-.199v3.667c-.008.26.036.52.128.764a.908.908 0 0 0 .398.462c.217.11.458.162.701.152.147 0 .294-.014.439-.041a3.055 3.055 0 0 0 .83-.286c.07-.037.142-.076.216-.119v-4.4Zm7.31.158a2.522 2.522 0 0 0-1.392-.368c-.296.001-.59.04-.877.117a3.81 3.81 0 0 0-.877.356c-.05.028-.101.06-.152.092v-.553l-1.332.21v8.338h1.332v-2.624c.213.09.434.156.661.2.28.053.564.078.848.076a2.964 2.964 0 0 0 1.508-.385 2.76 2.76 0 0 0 1.058-1.121c.261-.49.392-1.086.392-1.787a3.669 3.669 0 0 0-.298-1.524 2.332 2.332 0 0 0-.871-1.027Zm-.421 3.876a1.533 1.533 0 0 1-.655.713c-.325.168-.687.25-1.052.239-.168 0-.336-.012-.503-.035a3.05 3.05 0 0 1-.514-.123 7.626 7.626 0 0 1-.152-.051v-3.621l.011-.005a5.66 5.66 0 0 1 .462-.188 2.69 2.69 0 0 1 .415-.11c.128-.023.257-.035.386-.035a2.08 2.08 0 0 1 1.011.222 1.4 1.4 0 0 1 .608.677c.148.367.218.76.205 1.156.012.399-.064.795-.222 1.161Zm6.672-.863c.23-.068.447-.179.637-.327.162-.13.292-.296.38-.485.086-.19.13-.398.128-.607a1.718 1.718 0 0 0-.158-.712 1.838 1.838 0 0 0-.467-.625 2.237 2.237 0 0 0-.778-.432 3.416 3.416 0 0 0-1.087-.157c-.64 0-1.181.134-1.625.402a2.54 2.54 0 0 0-1.006 1.133 3.994 3.994 0 0 0-.339 1.699c0 .646.119 1.191.357 1.635.238.444.613.8 1.07 1.016.475.233 1.06.35 1.753.35a5.19 5.19 0 0 0 .772-.053 3.6 3.6 0 0 0 .667-.163c.21-.074.425-.161.643-.263l.082-.968a7.718 7.718 0 0 1-.93.297 4.403 4.403 0 0 1-1.081.123 3.222 3.222 0 0 1-.866-.105 1.334 1.334 0 0 1-.988-.981 2.834 2.834 0 0 1-.097-.512l2.032-.107c.306-.017.608-.07.9-.158Zm-3.052-.602c.015-.285.072-.566.168-.834.096-.284.28-.529.526-.701.254-.158.549-.238.848-.227.242-.01.483.04.701.146.164.083.302.21.398.368a.88.88 0 0 1 .128.443.658.658 0 0 1-.087.345.606.606 0 0 1-.293.233 1.714 1.714 0 0 1-.544.111l-1.845.116Zm8.532-2.74-.164 1.204a3.4 3.4 0 0 0-.45.006c-.136.01-.271.031-.404.064-.125.031-.248.07-.368.117a2.377 2.377 0 0 0-.356.175 8.947 8.947 0 0 0-.258.163v4.344h-1.333v-5.909l1.333-.198v.938l.065-.074c.161-.182.344-.344.543-.484.194-.136.41-.237.637-.298.246-.064.502-.08.755-.047Z"/><path fill="#00B3C7" fill-rule="evenodd" d="M23.913 5C18.289 5 13.7 9.584 13.7 15.2c0 5.606 4.589 10.2 10.213 10.2 5.612 0 10.212-4.594 10.212-10.2 0-5.616-4.6-10.2-10.212-10.2Zm-8.21 10.2c0 4.528 3.708 8.276 8.21 8.276 4.544 0 8.21-3.748 8.21-8.276 0-4.583-3.665-8.276-8.21-8.276-4.502 0-8.21 3.693-8.21 8.276Zm6.405.033a1.549 1.549 0 0 1-.97 1.453 1.557 1.557 0 0 1-.604.113 1.57 1.57 0 0 1-1.568-1.566 1.565 1.565 0 0 1 1.568-1.566 1.556 1.556 0 0 1 1.574 1.566Zm7.142-.726-1.034.824c-.078.055-.078.11-.055.198l.34 1.264c.023.067-.01.077-.054.044l-1.112-.725a.165.165 0 0 0-.198 0l-1.123.737c-.044.032-.077.01-.055-.055l.341-1.264a.167.167 0 0 0-.044-.198l-1.045-.847c-.033-.032-.033-.076.022-.076l1.31-.055a.133.133 0 0 0 .132-.1l.506-1.263c.033-.077.077-.067.1 0l.44 1.22a.182.182 0 0 0 .198.143l1.298.055c.077 0 .088.054.033.098Z" clip-rule="evenodd"/></svg>
